src/assets/logo.svg

<svg fill="none" height="40" viewBox="0 0 95 40" width="95" xmlns="http://www.w3.org/2000/svg"><g clip-rule="evenodd" fill-rule="evenodd"><path d="m46.1934 34.6961c.4949.4079 1.1213.7439 1.8641.7439.6558 0 1.1659-.336 1.1659-.8602 0-.4514-.5243-.6851-1.1365-.9473-.8299-.3491-1.7912-.7428-1.7912-1.8064 0-1.3257 1.2822-2.1707 2.5785-2.1707 1.0191 0 1.7042.335 2.2426.7287l-.7428.9613c-.426-.303-.9336-.4706-1.4563-.4807-.4655 0-1.2386.1893-1.2386.8299 0 .423.5829.6122 1.1941.8895.8167.3643 1.7346.8299 1.7346 1.937 0 1.268-1.1517 2.1282-2.5351 2.1282-.9917 0-1.8793-.2925-2.6372-.9331zm6.8178-2.4176h3.5693c-.1315-.8885-.7134-1.4138-1.6323-1.4138-.8885 0-1.6313.5688-1.937 1.4138zm4.9537.5667c0 .1761-.0303.4665-.0587.5981h-5.0842c.0435 1.1223.7721 1.9967 1.9956 1.9967.6558 0 1.2387-.2632 1.7771-.7145l.8298.8885c-.6547.5829-1.3682 1.0343-2.5927 1.0343-.757 0-1.5443-.2034-2.1859-.7135-.757-.5971-1.2083-1.4997-1.2083-2.535 0-2.0685 1.4856-3.7444 3.5551-3.7444 1.8348 0 2.9722 1.3561 2.9722 3.1908zm7.0071 2.4197c-.67.8744-1.6759 1.3844-2.9004 1.3844-1.8924 0-3.3942-1.3702-3.3942-3.2485 0-2.0847 1.5888-3.7444 3.7008-3.7444 1.2387 0 2.2295.5819 2.8559 1.5585l-1.0788.7721c-.3927-.5829-1.0049-1.02-1.8216-1.02-1.2377 0-2.2719 1.1071-2.2719 2.3599 0 1.1942.8298 2.0108 2.025 2.0108.8015 0 1.4421-.3946 1.8792-.933zm.844-1.4421c0-.3066.0435-.7873.1164-1.1941l.4958-2.8276h1.3986l-.4959 2.8265c-.0713.3895-.1103.7841-.1164 1.18 0 .9766.6983 1.5301 1.5443 1.5301.7722 0 1.5302-.4078 2.0837-1.0929l.7722-4.4437h1.3986l-1.18 6.7025h-1.3257l.1163-.584c-.5393.4524-1.2245.7287-1.9956.7287-.3919-.001-.7793-.083-1.1379-.241-.3586-.1579-.6806-.3884-.9458-.6769-.4709-.5236-.7306-1.2034-.7286-1.9076zm12.3685-2.8123c-.1292-.0289-.2612-.0435-.3936-.0435-.8734 0-1.7042.5829-2.0979 1.1648l-.757 4.3718h-1.3985l1.18-6.7025h1.3257l-.1316.6416c.4959-.4513 1.2245-.7873 1.9096-.7873.247 0 .4797.0294.7418.1164zm2.3894-4.5601c.51 0 .9178.4079.9178.9179.0003.1199-.0233.2387-.0696.3493-.0462.1107-.114.211-.1995.2951-.0855.084-.1869.1502-.2983.1946-.1114.0443-.2306.066-.3504.0637-.1192.0019-.2375-.0201-.3479-.0648s-.2108-.1111-.2951-.1953-.1508-.1844-.1956-.2948-.0669-.2287-.0651-.3478c0-.51.3936-.9179.9037-.9179zm.3056 3.3497-1.179 6.7025h-1.3986l1.18-6.7015h1.3986zm5.2158 6.7025c-.2773.1022-.67.1467-.9908.1467-1.1799 0-2.3893-.7286-2.3893-2.1566 0-.1457.0729-.7428.1164-.9614l.4372-2.4915h-1.7487l.2186-1.2387h1.7487l.3349-1.8934h1.3986l-.335 1.8924h2.1708l-.2186 1.2397h-2.1707l-.4666 2.695c-.0587.3501-.1012.6699-.1012.8015 0 .5829.4514.8733 1.0333.8733.2327 0 .51-.0425.6993-.1012zm8.3621-6.7015-6.2501 10.1989h-1.5888l2.5785-4.2109-1.6596-5.988h1.4269l1.1941 4.4144 2.7112-4.4144zm-51.5742-23.81213c-.4321-.1437-1.3419-.23984-2.2527-.23984-2.7313 0-4.8869 1.96529-5.653 3.35374v14.61313h-6.2288v-23.237328h5.989v2.347818c1.3895-1.72342 3.9286-2.82649 6.7561-2.82649.9107 0 1.437.0961392 2.1079.192278zm25.4891 12.98383c-2.7304 3.6412-6.1803 5.2219-10.5399 5.2219-7.1872 0-12.4577-5.3656-12.4577-12.0731 0-6.75501 5.4142-12.1216 12.5052-12.1216 4.0247 0 7.6173 1.86915 9.7739 4.64808l-4.4073 3.87998c-1.2457-1.62931-3.1149-2.77893-5.3666-2.77893-3.5925 0-6.2763 2.82649-6.2763 6.37247 0 3.6412 2.6352 6.325 6.42 6.325 2.5391 0 4.552-1.5342 5.5579-3.0663zm20.0263-10.3486c-.6672-.89479-1.5348-1.62083-2.5332-2.11993s-2.0998-.75737-3.216-.75413c-3.6421 0-5.9899 3.01776-5.9899 6.37146 0 3.6412 2.6352 6.325 6.1326 6.325 2.3479 0 4.4083-1.1506 5.6065-2.8751zm6.2278 15.0918h-5.988v-1.8671c-1.9167 1.6293-4.1208 2.3478-6.4686 2.3478-3.4509 0-6.7075-1.5342-8.7679-3.9285-1.8216-2.109-2.9712-4.9831-2.9712-8.1466 0-6.85013 5.0802-12.1216 11.4051-12.1216 2.6342 0 4.982.862217 6.8036 2.34782v-1.869148h5.988v23.237328zm-82.2659-23.716c-1.609 0-3.12703.286394-4.51346.801498 1.70352 1.319292 3.07196 3.021632 3.99436 4.968882.171-.01215.343-.02024.5191-.02024 3.6412 0 6.1327 2.87406 6.1327 6.37146 0 3.4975-2.4915 6.325-6.1327 6.325-.2935 0-.5778-.0202-.8561-.0567-1.037 1.9026-2.51243 3.5306-4.30402 4.7493 1.62928.7038 3.38642 1.0635 5.16112 1.0565 7.0425 0 12.3605-5.3666 12.3605-12.073 0-6.70854-5.318-12.1227-12.3615-12.1227z" fill="#10111d"/><g fill="#0080ff"><path d="m5.01447 21.9076c.55659.3947 1.14962.7448 1.77503 1.0454 1.70603-1.2221 3.10662-2.8218 4.0925-4.6744-.91354-.2078-1.76382-.6319-2.47938-1.2367-.75754 1.8515-1.91445 3.5129-3.38815 4.8657zm6.18423-16.05424c-.88-1.8938-2.18158-3.56123-3.80504-4.874768-.67352.282338-1.3204.624408-1.93291 1.022108 1.40201 1.41702 2.47753 3.12321 3.15135 4.99924.75597-.58715 1.6439-.98075 2.5866-1.14658z"/><path d="m8.08682 7.46242c-.61597-1.9308-1.6533-3.70059-3.03699-5.1814-.65375.46248-1.25487.98669-1.79932 1.56454 1.6009 2.32541 2.45293 5.08453 2.44194 7.90774 0 3.122-1.0039 5.991-2.73542 8.2993.506.5758 1.06664 1.1021 1.67687 1.5737 1.45555-1.4192 2.57398-3.147 3.27278-5.056-1.0636-1.1425-1.67889-2.7121-1.67889-4.4487 0-1.8317.68512-3.49134 1.85903-4.65918z"/><path d="m1.95318 11.7533c0 1.8266-.34711 3.5662-.979608 5.1581.418968.9756.964428 1.8823 1.617168 2.702 1.53822-2.2284 2.4227-4.9324 2.4227-7.8601 0-2.75264-.78328-5.31298-2.15453-7.46953-.69321.81364-1.27612 1.72038-1.73152 2.69898.53636 1.48763.82579 3.09365.82579 4.77055z"/><path d="m.624421 15.9885c.420989-1.3338.648689-2.7557.648689-4.2362 0-1.3338-.18722-2.6221-.53231-3.84358-.492707 1.34983-.74347445 2.77598-.74077849 4.21288 0 1.3551.21960249 2.6545.62439949 3.8659"/></g></g></svg>

<svg width="95" height="40" viewBox="0 0 95 40" fill="none" xmlns="http://www.w3.org/2000/svg" aria-labelledby="logotype-title" role="img">
    <title id="logotype-title">Logotype ORCA Security</title>
<path fill-rule="evenodd" clip-rule="evenodd" d="M46.1934 34.6961C46.6883 35.104 47.3147 35.44 48.0575 35.44C48.7133 35.44 49.2234 35.104 49.2234 34.5798C49.2234 34.1284 48.6991 33.8947 48.0869 33.6325C47.257 33.2834 46.2957 32.8897 46.2957 31.8261C46.2957 30.5004 47.5779 29.6554 48.8742 29.6554C49.8933 29.6554 50.5784 29.9904 51.1168 30.3841L50.374 31.3454C49.948 31.0424 49.4404 30.8748 48.9177 30.8647C48.4522 30.8647 47.6791 31.054 47.6791 31.6946C47.6791 32.1176 48.262 32.3068 48.8732 32.5841C49.6899 32.9484 50.6078 33.414 50.6078 34.5211C50.6078 35.7891 49.4561 36.6493 48.0727 36.6493C47.081 36.6493 46.1934 36.3568 45.4355 35.7162L46.1934 34.6961ZM53.0112 32.2785H56.5805C56.449 31.39 55.8671 30.8647 54.9482 30.8647C54.0597 30.8647 53.3169 31.4335 53.0112 32.2785ZM57.9649 32.8452C57.9649 33.0213 57.9346 33.3117 57.9062 33.4433H52.822C52.8655 34.5656 53.5941 35.44 54.8176 35.44C55.4734 35.44 56.0563 35.1768 56.5947 34.7255L57.4245 35.614C56.7698 36.1969 56.0563 36.6483 54.8318 36.6483C54.0748 36.6483 53.2875 36.4449 52.6459 35.9348C51.8889 35.3377 51.4376 34.4351 51.4376 33.3998C51.4376 31.3313 52.9232 29.6554 54.9927 29.6554C56.8275 29.6554 57.9649 31.0115 57.9649 32.8462V32.8452ZM64.972 35.2649C64.302 36.1393 63.2961 36.6493 62.0716 36.6493C60.1792 36.6493 58.6774 35.2791 58.6774 33.4008C58.6774 31.3161 60.2662 29.6564 62.3782 29.6564C63.6169 29.6564 64.6077 30.2383 65.2341 31.2149L64.1553 31.987C63.7626 31.4041 63.1504 30.967 62.3337 30.967C61.096 30.967 60.0618 32.0741 60.0618 33.3269C60.0618 34.5211 60.8916 35.3377 62.0868 35.3377C62.8883 35.3377 63.5289 34.9431 63.966 34.4047L64.972 35.2649ZM65.816 33.8228C65.816 33.5162 65.8595 33.0355 65.9324 32.6287L66.4282 29.8011H67.8268L67.3309 32.6276C67.2596 33.0171 67.2206 33.4117 67.2145 33.8076C67.2145 34.7842 67.9128 35.3377 68.7588 35.3377C69.531 35.3377 70.289 34.9299 70.8425 34.2448L71.6147 29.8011H73.0133L71.8333 36.5036H70.5076L70.6239 35.9196C70.0846 36.372 69.3994 36.6483 68.6283 36.6483C68.2364 36.6473 67.849 36.5653 67.4904 36.4073C67.1318 36.2494 66.8098 36.0189 66.5446 35.7304C66.0737 35.2068 65.814 34.527 65.816 33.8228ZM78.1845 31.0105C78.0553 30.9816 77.9233 30.967 77.7909 30.967C76.9175 30.967 76.0867 31.5499 75.693 32.1318L74.936 36.5036H73.5375L74.7175 29.8011H76.0432L75.9116 30.4427C76.4075 29.9914 77.1361 29.6554 77.8212 29.6554C78.0682 29.6554 78.3009 29.6848 78.563 29.7718L78.1845 31.0105ZM80.5739 26.4504C81.0839 26.4504 81.4917 26.8583 81.4917 27.3683C81.492 27.4882 81.4684 27.607 81.4221 27.7176C81.3759 27.8283 81.3081 27.9286 81.2226 28.0127C81.1371 28.0967 81.0357 28.1629 80.9243 28.2073C80.8129 28.2516 80.6937 28.2733 80.5739 28.271C80.4547 28.2729 80.3364 28.2509 80.226 28.2062C80.1156 28.1615 80.0152 28.0951 79.9309 28.0109C79.8466 27.9267 79.7801 27.8265 79.7353 27.7161C79.6905 27.6057 79.6684 27.4874 79.6702 27.3683C79.6702 26.8583 80.0638 26.4504 80.5739 26.4504ZM80.8795 29.8001L79.7005 36.5026H78.3019L79.4819 29.8011H80.8805L80.8795 29.8001ZM86.0953 36.5026C85.818 36.6048 85.4253 36.6493 85.1045 36.6493C83.9246 36.6493 82.7152 35.9207 82.7152 34.4927C82.7152 34.347 82.7881 33.7499 82.8316 33.5313L83.2688 31.0398H81.5201L81.7387 29.8011H83.4874L83.8223 27.9077H85.2209L84.8859 29.8001H87.0567L86.8381 31.0398H84.6674L84.2008 33.7348C84.1421 34.0849 84.0996 34.4047 84.0996 34.5363C84.0996 35.1192 84.551 35.4096 85.1329 35.4096C85.3656 35.4096 85.6429 35.3671 85.8322 35.3084L86.0953 36.5026ZM94.4574 29.8011L88.2073 40H86.6185L89.197 35.7891L87.5374 29.8011H88.9643L90.1584 34.2155L92.8696 29.8011H94.4574ZM42.8832 5.98897C42.4511 5.84527 41.5413 5.74913 40.6305 5.74913C37.8992 5.74913 35.7436 7.71442 34.9775 9.10287V23.716H28.7487V0.478672H34.7377V2.82649C36.1272 1.10307 38.6663 0 41.4938 0C42.4045 0 42.9308 0.0961392 43.6017 0.192278L42.8832 5.98897ZM68.3723 18.9728C65.6419 22.614 62.192 24.1947 57.8324 24.1947C50.6452 24.1947 45.3747 18.8291 45.3747 12.1216C45.3747 5.36659 50.7889 0 57.8799 0C61.9046 0 65.4972 1.86915 67.6538 4.64808L63.2465 8.52806C62.0008 6.89875 60.1316 5.74913 57.8799 5.74913C54.2874 5.74913 51.6036 8.57562 51.6036 12.1216C51.6036 15.7628 54.2388 18.4466 58.0236 18.4466C60.5627 18.4466 62.5756 16.9124 63.5815 15.3803L68.3723 18.9728ZM88.3986 8.6242C87.7314 7.72941 86.8638 7.00337 85.8654 6.50427C84.867 6.00517 83.7656 5.7469 82.6494 5.75014C79.0073 5.75014 76.6595 8.7679 76.6595 12.1216C76.6595 15.7628 79.2947 18.4466 82.7921 18.4466C85.14 18.4466 87.2004 17.296 88.3986 15.5715V8.6242ZM94.6264 23.716H88.6384V21.8489C86.7217 23.4782 84.5176 24.1967 82.1698 24.1967C78.7189 24.1967 75.4623 22.6625 73.4019 20.2682C71.5803 18.1592 70.4307 15.2851 70.4307 12.1216C70.4307 5.27147 75.5109 0 81.8358 0C84.47 0 86.8178 0.862217 88.6394 2.34782V0.478672H94.6274V23.716H94.6264ZM12.3605 0C10.7515 0 9.23347 0.286394 7.84704 0.801498C9.55056 2.12079 10.919 3.82313 11.8414 5.77038C12.0124 5.75823 12.1844 5.75014 12.3605 5.75014C16.0017 5.75014 18.4932 8.6242 18.4932 12.1216C18.4932 15.6191 16.0017 18.4466 12.3605 18.4466C12.067 18.4466 11.7827 18.4264 11.5044 18.3899C10.4674 20.2925 8.99197 21.9205 7.20038 23.1392C8.82966 23.843 10.5868 24.2027 12.3615 24.1957C19.404 24.1957 24.722 18.8291 24.722 12.1227C24.722 5.41416 19.404 0 12.3605 0Z" fill="#10111D"/>
<path fill-rule="evenodd" clip-rule="evenodd" d="M5.01447 21.9076C5.57106 22.3023 6.16409 22.6524 6.7895 22.953C8.49553 21.7309 9.89612 20.1312 10.882 18.2786C9.96846 18.0708 9.11818 17.6467 8.40262 17.0419C7.64508 18.8934 6.48817 20.5548 5.01447 21.9076ZM11.1987 5.85336C10.3187 3.95956 9.01712 2.29213 7.39366 0.978592C6.72014 1.26093 6.07326 1.603 5.46075 2.0007C6.86276 3.41772 7.93828 5.12391 8.6121 6.99994C9.36807 6.41279 10.256 6.01919 11.1987 5.85336Z" fill="#0080FF"/>
<path fill-rule="evenodd" clip-rule="evenodd" d="M8.08682 7.46242C7.47085 5.53162 6.43352 3.76183 5.04983 2.28102C4.39608 2.7435 3.79496 3.26771 3.25051 3.84556C4.85141 6.17097 5.70344 8.93009 5.69245 11.7533C5.69245 14.8753 4.68855 17.7443 2.95703 20.0526C3.46303 20.6284 4.02367 21.1547 4.6339 21.6263C6.08945 20.2071 7.20788 18.4793 7.90668 16.5703C6.84308 15.4278 6.22779 13.8582 6.22779 12.1216C6.22779 10.2899 6.91291 8.63026 8.08682 7.46242Z" fill="#0080FF"/>
<path fill-rule="evenodd" clip-rule="evenodd" d="M1.95318 11.7533C1.95318 13.5799 1.60607 15.3195 0.973572 16.9114C1.39254 17.887 1.938 18.7937 2.59074 19.6134C4.12896 17.385 5.01344 14.681 5.01344 11.7533C5.01344 9.00066 4.23016 6.44032 2.85891 4.28377C2.1657 5.09741 1.58279 6.00415 1.12739 6.98275C1.66375 8.47038 1.95318 10.0764 1.95318 11.7533Z" fill="#0080FF"/>
<path fill-rule="evenodd" clip-rule="evenodd" d="M0.624421 15.9885C1.04541 14.6547 1.27311 13.2328 1.27311 11.7523C1.27311 10.4185 1.08589 9.1302 0.7408 7.90872C0.248093 9.25855 -0.00267445 10.6847 2.15083e-05 12.1216C2.15083e-05 13.4767 0.219624 14.7761 0.624421 15.9875" fill="#0080FF"/>
</svg>
